X: 1
T: TERRY HEIGH - JIG
B: Ryan's Mammoth Collection of Fiddle Tunes
R: jig
M: 9/8
L: 1/8
Z: Contributed 20021129144240 by John Chambers jmchambers:rcn.com
K: G
vgfg edc BAG | gfg edB def | gfg edc Bdc | BAG G"4"AG (c2B) :|
|: ABA (A2B) G3 | ABA (A2B) (d2B) | ABA (A2B) (G2B) | dBG G"4"AG Bcd :|
